src/DGGeoclicker/skin/dark/img/DGGeoclicker__purpose_dark.svg

<svg xmlns="http://www.w3.org/2000/svg" width="8" height="12"><path fill="#A0A0A0" d="M3.582 8c.211 0 .798.035 1 0v4l-2-1v-3c.372.066.861 0 1 0zm-3.142-2.616c-.277-.518-.44-1.108-.44-1.738 0-2.013 1.604-3.644 3.582-3.644s3.582 1.631 3.582 3.644c0 .647-.169 1.254-.461 1.781l-.062.068-.023.072c-.664.982-1.774 1.625-3.034 1.625-1.334 0-2.5-.725-3.144-1.808zm2.173-4.108c-.549 0-.995.453-.995 1.013 0 .559.446 1.013.995 1.013.551 0 .996-.454.996-1.013 0-.56-.445-1.013-.996-1.013z"/></svg>

<svg xmlns="http://www.w3.org/2000/svg" width="8" height="12">
    <path d="m 3.582,8 c 0.211,0 0.798,0.035 1,0 v 4 l -2,-1 V 8 c 0.372,0.066 0.861,0 1,0 z M 0.44,5.384 C 0.163,4.866 0,4.276 0,3.646 0,1.633 1.604,0.002 3.582,0.002 c 1.978,0 3.582,1.631 3.582,3.644 0,0.647 -0.169,1.254 -0.461,1.781 L 6.641,5.495 6.618,5.567 C 5.954,6.549 4.844,7.192 3.584,7.192 2.25,7.192 1.084,6.467 0.44,5.384 z M 2.613,1.276 c -0.549,0 -0.995,0.453 -0.995,1.013 0,0.559 0.446,1.013 0.995,1.013 0.551,0 0.996,-0.454 0.996,-1.013 0,-0.56 -0.445,-1.013 -0.996,-1.013 z" fill="#a0a0a0"/>
</svg>
